X: 106
M:2/4
L:1/16
K:G
"_mf"vG2B2 d2g2 | ve2vag fdef | \
g"4"d'"3"c'"2"e "1"d"3"c'"2"b"3"d | "2"^cdba fd |
|:{ga}vgfga bgdB | v(A>v.a)u"tr"a2 {^ga}v(f>vd)u"tr"d2{^cd} |
vg"1"a"2"b"3"c' "4"d'"2"b"4"g"2"b | ad'^c'd' af"3"d |
{ga}vgfga bgdB | v(A>v.a)u"tr"a2 {^ga}v(fvd)u"tr"d2 {^cd}| \
vg"1"a"2"b"3"c' "4"d'bc'a | bgaf g4 :|


